X: 1120
T: Tea in the Morning
R:slip jig
B:O'Neill's 1120
Z:Transcribed by Michael Hogan
M:9/8
L:1/8
K:G
d2G G(FG/A/) B3 | Gzd dzG ABc | d2G GFG/A/ B3 | dcB AGF ABc :|
ded czd B3 | Gzd dzG ABc | ded czd B2c | dcB AGF ABc |
ded czd B3 | Gzd dzG ABc | dzg fdc B2c | dcB AGF ABc ||


